packages/foundations/assets/icons/functional/images/maps/road_sign.svg

<svg xmlns="http://www.w3.org/2000/svg" width="32" height="32" fill="none"><path fill="#1A1C1F" fill-rule="evenodd" d="m6.369 2.078-1.178.029-.449.222c-.725.36-1.261.957-1.585 1.767l-.144.357V8c0 3.299.007 3.572.1 3.908.184.667.735 1.325 1.437 1.714.69.381.448.363 5.197.391l4.28.026V28h-2.242c-2.486 0-2.317-.023-2.733.368-.236.222-.33.508-.279.848.045.298.408.678.71.742.108.023 2.575.041 5.481.039 5.181-.002 5.287-.005 5.465-.109.242-.141.518-.51.563-.751.068-.362-.206-.863-.559-1.022-.165-.074-.497-.089-2.286-.105l-2.094-.019V14.029l3.827-.015L23.707 14l.46-.221c.379-.182.578-.33 1.113-.827.871-.809 3.123-3.158 3.316-3.459.467-.727.523-1.791.142-2.706-.151-.362-.248-.481-1.27-1.551-1.761-1.845-2.673-2.695-3.145-2.931l-.397-.198-1.176-.034c-1.404-.041-14.698-.037-16.381.005m17.156 2.091c.129.092.951.879 1.826 1.747l1.59 1.579.03.325c.052.579.047.586-1.606 2.236-.824.823-1.616 1.591-1.76 1.707l-.262.21h-8.858c-8.602 0-8.863-.003-9.007-.101a1.3 1.3 0 0 1-.294-.346l-.144-.246V7.973c0-3.229.003-3.311.109-3.491.174-.297.403-.398.984-.432.279-.017 4.253-.035 8.832-.04L23.291 4z"/></svg>

<svg width="32" height="32" viewBox="0 0 32 32" fill="none" xmlns="http://www.w3.org/2000/svg"><path d="M6.369 2.078 L 5.191 2.107 4.742 2.329 C 4.017 2.689,3.481 3.286,3.157 4.096 L 3.013 4.453 3.013 8.000 C 3.013 11.299,3.020 11.572,3.113 11.908 C 3.297 12.575,3.848 13.233,4.550 13.622 C 5.240 14.003,4.998 13.985,9.747 14.013 L 14.027 14.039 14.027 21.019 L 14.027 28.000 11.785 28.000 C 9.299 28.000,9.468 27.977,9.052 28.368 C 8.816 28.590,8.722 28.876,8.773 29.216 C 8.818 29.514,9.181 29.894,9.483 29.958 C 9.591 29.981,12.058 29.999,14.964 29.997 C 20.145 29.995,20.251 29.992,20.429 29.888 C 20.671 29.747,20.947 29.378,20.992 29.137 C 21.060 28.775,20.786 28.274,20.433 28.115 C 20.268 28.041,19.936 28.026,18.147 28.010 L 16.053 27.991 16.053 21.010 L 16.053 14.029 19.880 14.014 L 23.707 14.000 24.167 13.779 C 24.546 13.597,24.745 13.449,25.280 12.952 C 26.151 12.143,28.403 9.794,28.596 9.493 C 29.063 8.766,29.119 7.702,28.738 6.787 C 28.587 6.425,28.490 6.306,27.468 5.236 C 25.707 3.391,24.795 2.541,24.323 2.305 L 23.926 2.107 22.750 2.073 C 21.346 2.032,8.052 2.036,6.369 2.078 M23.525 4.169 C 23.654 4.261,24.476 5.048,25.351 5.916 L 26.941 7.495 26.971 7.820 C 27.023 8.399,27.018 8.406,25.365 10.056 C 24.541 10.879,23.749 11.647,23.605 11.763 L 23.343 11.973 14.485 11.973 C 5.883 11.973,5.622 11.970,5.478 11.872 C 5.396 11.817,5.264 11.661,5.184 11.526 L 5.040 11.280 5.040 7.973 C 5.040 4.744,5.043 4.662,5.149 4.482 C 5.323 4.185,5.552 4.084,6.133 4.050 C 6.412 4.033,10.386 4.015,14.965 4.010 L 23.291 4.000 23.525 4.169 " fill="#1A1C1F" stroke="none" fill-rule="evenodd"></path></svg>
